X:61
T:Édesanyám almafája
O: Józseffalva, 1932
Q: Parlando
L:1/4
K:C
A/A/A/A/ | B/c/ B HA2 |
F/F/F/G/ | A/A/ G HF2 z |
F/F/F/G/ | A/A/ G F2 | 
A/A/G/F/ | G/E/ HD D2 | 

